src/bright/hiso font bright_i.svg

<svg xmlns="http://www.w3.org/2000/svg" width="54" height="126" viewBox="0 0 54 126"><path fill="#000101" d="M0 99.001l36 17.999v-63l-36-17.999v63zm3-58.146l30 14.999v56.292l-30-14.999v-56.292zm-3-31.851v18l36 17.998v-18l-36-17.998zm33 31.143l-30-14.998v-11.292l30 14.998v11.292z"/></svg>

<svg xmlns="http://www.w3.org/2000/svg" width="54" height="126"><path fill="#000101" d="M0 99.001L36 117V54L0 36.001v63zm3-58.146l30 14.999v56.292L3 97.147V40.855zM0 9.004v18l36 17.998v-18L0 9.004zm33 31.143L3 25.149V13.857l30 14.998v11.292z"/></svg>
